assets/MarketChannelLogos/IDS_NEXT.svg

<svg xmlns="http://www.w3.org/2000/svg" width="596" height="596" fill="none"><g clip-path="url(#a)"><path fill="#fff" d="M584.9 375.9c.5-2 1.1-4 1.6-6z"/><path fill="url(#b)" fill-rule="evenodd" d="M116.257 136.454c1.438 1.883 106.223 161.226 106.223 161.528 0 .214-23.409 35.898-52.021 79.298-28.611 43.401-52.574 79.768-53.251 80.815l-1.23 1.905h102.953l20.675-29.661c11.372-16.313 36.669-52.6 56.217-80.637 19.548-28.037 35.559-51.17 35.58-51.406.021-.236-25.278-36.85-56.218-81.363L218.928 136H167.42c-41.149 0-51.439.091-51.163.454m147.35 0c.3.502 10.905 16.604 41.52 63.04a156876.25 156876.25 0 0 1 25.589 38.822c18.514 28.112 24.174 36.697 31.215 47.348 4.353 6.585 7.913 12.136 7.91 12.336-.002.2-23.844 36.527-52.982 80.728-29.139 44.201-53.102 80.569-53.251 80.818-.218.363 10.117.452 51.204.446l51.477-.009 6.75-9.697a410693.247 410693.247 0 0 1 96.967-139.118l9.037-12.955-56.378-81.1-56.376-81.099-51.477-.007c-41.085-.006-51.422.084-51.205.447" clip-rule="evenodd"/><path fill="url(#c)" fill-rule="evenodd" d="M265.127 138.629C269.352 144.9 370.1 297.859 370.1 298.002c0 .144-5.755 8.91-22.388 34.103a35347.738 35347.738 0 0 0-15.907 24.128 62021.345 62021.345 0 0 1-28.704 43.539 16048.728 16048.728 0 0 0-20.667 31.384 10888.54 10888.54 0 0 1-11.18 16.963l-7.847 11.884 51.402-.092 51.403-.092 12.4-17.779c6.82-9.778 25.203-36.146 40.851-58.595a697780 697780 0 0 1 43.813-62.851c8.448-12.118 15.361-22.197 15.361-22.398 0-.2-6.561-9.796-14.579-21.323a59054.017 59054.017 0 0 1-17.853-25.677c-1.801-2.594-15.935-22.921-31.41-45.171a137534.41 137534.41 0 0 1-35.944-51.702 7221.565 7221.565 0 0 0-10.223-14.695l-2.414-3.446-51.43-.092-51.43-.092z" clip-rule="evenodd"/></g><defs><linearGradient id="b" x1="297.51" x2="297.51" y1="136" y2="460" gradientUnits="userSpaceOnUse"><stop stop-color="#F7936A"/><stop offset="1" stop-color="#F57B48"/></linearGradient><linearGradient id="c" x1="370.995" x2="370.995" y1="135.998" y2="460.003" gradientUnits="userSpaceOnUse"><stop stop-color="#F15051"/><stop offset="1" stop-color="#F15051"/></linearGradient><clipPath id="a"><path fill="#fff" d="M0 0h595.3v595.3H0z"/></clipPath></defs></svg>

<svg width="596" height="596" viewBox="0 0 596 596" fill="none" xmlns="http://www.w3.org/2000/svg">
<g clip-path="url(#clip0_57_9)">
<path d="M584.9 375.9C585.4 373.9 586 371.9 586.5 369.9L584.9 375.9Z" fill="white"/>
<path fill-rule="evenodd" clip-rule="evenodd" d="M116.257 136.454C117.695 138.337 222.48 297.68 222.48 297.982C222.48 298.196 199.071 333.88 170.459 377.28C141.848 420.681 117.885 457.048 117.208 458.095L115.978 460H167.455H218.931L239.606 430.339C250.978 414.026 276.275 377.739 295.823 349.702C315.371 321.665 331.382 298.532 331.403 298.296C331.424 298.06 306.125 261.446 275.185 216.933L218.928 136H167.42C126.271 136 115.981 136.091 116.257 136.454ZM263.607 136.454C263.907 136.956 274.512 153.058 305.127 199.494C316.375 216.556 327.891 234.025 330.716 238.316C349.23 266.428 354.89 275.013 361.931 285.664C366.284 292.249 369.844 297.8 369.841 298C369.839 298.2 345.997 334.527 316.859 378.728C287.72 422.929 263.757 459.297 263.608 459.546C263.39 459.909 273.725 459.998 314.812 459.992L366.289 459.983L373.039 450.286C384.077 434.429 451.368 337.888 470.006 311.168L479.043 298.213L422.665 217.113L366.289 136.014L314.812 136.007C273.727 136.001 263.39 136.091 263.607 136.454Z" fill="url(#paint0_linear_57_9)"/>
<path fill-rule="evenodd" clip-rule="evenodd" d="M265.127 138.629C269.352 144.9 370.1 297.859 370.1 298.002C370.1 298.146 364.345 306.912 347.712 332.105C344.418 337.094 337.26 347.952 331.805 356.233C321.97 371.164 319.05 375.593 303.101 399.772C293.459 414.388 287.086 424.066 282.434 431.156C280.6 433.95 275.569 441.583 271.254 448.119L263.407 460.003L314.809 459.911L366.212 459.819L378.612 442.04C385.432 432.262 403.815 405.894 419.463 383.445C435.111 360.995 454.827 332.712 463.276 320.594C471.724 308.476 478.637 298.397 478.637 298.196C478.637 297.996 472.076 288.4 464.058 276.873C456.039 265.345 448.006 253.79 446.205 251.196C444.404 248.602 430.27 228.275 414.795 206.025C399.321 183.775 383.146 160.509 378.851 154.323C374.556 148.136 369.955 141.524 368.628 139.628L366.214 136.182L314.784 136.09L263.354 135.998L265.127 138.629Z" fill="url(#paint1_linear_57_9)"/>
</g>
<defs>
<linearGradient id="paint0_linear_57_9" x1="297.51" y1="136" x2="297.51" y2="460" gradientUnits="userSpaceOnUse">
<stop stop-color="#F7936A"/>
<stop offset="1" stop-color="#F57B48"/>
</linearGradient>
<linearGradient id="paint1_linear_57_9" x1="370.995" y1="135.998" x2="370.995" y2="460.003" gradientUnits="userSpaceOnUse">
<stop stop-color="#F15051"/>
<stop offset="1" stop-color="#F15051"/>
</linearGradient>
<clipPath id="clip0_57_9">
<rect width="595.3" height="595.3" fill="white"/>
</clipPath>
</defs>
</svg>
